icon-themes/breeze_svg/cmd/lc_symbolshapes.right-brace.svg

<svg xmlns="http://www.w3.org/2000/svg" viewBox="0 0 24 24">
 <path 
     style="fill:#4d4d4d" 
     d="M 9.984375 4 L 9.984375 5.1875 C 11.168975 5.1875 11.171875 5.67365 11.171875 7.40625 L 11.171875 9.4375 C 11.171875 10.2685 11.392205 11.4873 12.390625 12 C 11.392205 12.5127 11.171875 13.76285 11.171875 14.59375 L 11.171875 16.59375 C 11.171875 18.32635 11.168925 18.8125 9.984375 18.8125 L 9.984375 20 C 11.761205 20 12.484375 19.3034 12.484375 17.5 L 12.484375 15.0625 C 12.484375 13.9487 12.534145 12.65625 13.515625 12.65625 L 14.015625 12.65625 L 14.015625 11.34375 L 13.515625 11.34375 C 12.534195 11.34375 12.484375 10.0513 12.484375 8.9375 L 12.484375 6.5 C 12.484375 4.6966 11.761205 4 9.984375 4 z "
     />
 </svg>

<svg viewBox="0 0 24 24" xmlns="http://www.w3.org/2000/svg"><path d="m9.984375 4v1.1875c1.1846 0 1.1875.48615 1.1875 2.21875v2.03125c0 .831.22033 2.0498 1.21875 2.5625-.99842.5127-1.21875 1.76285-1.21875 2.59375v2c0 1.7326-.00295 2.21875-1.1875 2.21875v1.1875c1.77683 0 2.5-.6966 2.5-2.5v-2.4375c0-1.1138.04977-2.40625 1.03125-2.40625h.5v-1.3125h-.5c-.98143 0-1.03125-1.29245-1.03125-2.40625v-2.4375c0-1.8034-.72317-2.5-2.5-2.5z" fill="#4d4d4d"/></svg>
